icons/Submit Document Streamline Iconoir Regular.svg

<svg width="24" height="24" viewBox="0 0 24 24" fill="none" xmlns="http://www.w3.org/2000/svg">
<g id="Submit Document Streamline Iconoir Regular">
<path id="Vector" d="M19.1791 13.0255V5.58855C19.1791 5.42533 19.1142 5.26877 18.9989 5.15336L15.7697 1.92433C15.6544 1.80892 15.4978 1.74414 15.3347 1.74414H3.38515C3.04531 1.74414 2.76978 2.01958 2.76978 2.35942V21.6404C2.76978 21.9803 3.04531 22.2557 3.38515 22.2557H13.0257" stroke="black" stroke-linecap="round" stroke-linejoin="round"/>
<path id="Vector_2" d="M15.0767 1.74414V5.23108C15.0767 5.57092 15.3521 5.84645 15.6919 5.84645H19.179" stroke="black" stroke-linecap="round" stroke-linejoin="round"/>
<path id="Vector_3" d="M15.0767 19.1791H21.2301M21.2301 19.1791L18.1533 16.1023M21.2301 19.1791L18.1533 22.2558" stroke="black" stroke-linecap="round" stroke-linejoin="round"/>
</g>
</svg>

<svg xmlns="http://www.w3.org/2000/svg" width="24" height="24" fill="none"><g stroke="#000" stroke-linecap="round" stroke-linejoin="round"><path d="M19.18 13.026V5.588a.62.62 0 0 0-.181-.436l-3.23-3.229a.62.62 0 0 0-.434-.18H3.385a.615.615 0 0 0-.615.615V21.64c0 .34.275.616.615.616h9.64"/><path d="M15.077 1.744v3.487c0 .34.275.615.615.615h3.487M15.077 19.18h6.153m0 0-3.077-3.078m3.077 3.077-3.077 3.077"/></g></svg>
